X: 2454
T: Systerpolska 1 efter Timas Hans
C: Efter P\aal Olle & Nils Agenmark
S: Tunes from Ore (Sonet Folk Series #13) Sonet 014 253-2
S: Bruce Sagan's "scanfolk" session archive
F: https://nordicfiddlesandfeet.org/Allspel/Systerpolska.pdf 2021-7-12
R: polska (16th-note)
Z: 2021 John Chambers <jc:trillian.mit.edu>
M: 3/4
L: 1/16
K: Gm	% and Bb
D \
| "Gm"G3B d3c BcBA | G3B d2cd "Eb"g4 | "Bb"f3e dedc B2AB | "Cm"cdcB G2^F2 "D7"D3D |
| "Gm"G3B d3c BcBA | G3B d2cd "Eb"g4 | "Bb"f3e dedc B2AB | "D7"c2^F2 "Gm"G4- G2 :| 
|: A2 \
| "Bb"B4 B2AB "Eb"g3g | "Bb"fgfd "Eb"e4 c3A | "F"F4 F2Ac f2f2 | "#b"e2dc "D7"d4- d2A2 |
| "Gm"B2cB "D7"A2G^F "Gm"G3A | "Bb"B2AG "D7"G^FAF D4 | "Gm"g2^fg d3A B2dB | "D7"A2G^F "Gm"G4- G2 :|
